flaticon/romance-lifestyle/condom.svg

<svg xmlns="http://www.w3.org/2000/svg" width="32" height="32" viewBox="0 0 24 24">
    <path d="M 16.472656 19.691406 C 16.472656 19.648438 16.472656 19.566406 16.472656 19.527344 L 16.472656 13.996094 C 16.960938 13.46875 17.042969 12.65625 16.714844 12.003906 C 16.636719 11.882812 16.636719 11.71875 16.714844 11.597656 C 16.960938 11.109375 16.960938 10.5 16.714844 9.972656 C 16.636719 9.851562 16.636719 9.6875 16.714844 9.566406 C 16.960938 9.078125 16.960938 8.46875 16.714844 7.9375 C 16.636719 7.816406 16.636719 7.652344 16.714844 7.53125 C 17.042969 6.839844 16.960938 6.070312 16.472656 5.5 C 16.351562 3.589844 15.050781 1.960938 13.21875 1.433594 L 13.21875 1.3125 C 13.21875 0.660156 12.773438 0.0898438 12.164062 0.0117188 C 11.796875 -0.03125 11.472656 0.0507812 11.1875 0.292969 C 10.941406 0.539062 10.78125 0.863281 10.78125 1.230469 L 10.78125 1.390625 C 8.949219 1.921875 7.609375 3.546875 7.527344 5.457031 C 7.078125 6.070312 7 6.921875 7.363281 7.613281 C 7.40625 7.65625 7.40625 7.734375 7.363281 7.816406 C 7.039062 8.386719 7.039062 9.078125 7.363281 9.648438 C 7.40625 9.6875 7.40625 9.769531 7.363281 9.851562 C 7.039062 10.417969 7.039062 11.109375 7.363281 11.679688 C 7.40625 11.71875 7.40625 11.800781 7.363281 11.882812 C 6.957031 12.574219 7.039062 13.429688 7.527344 13.996094 L 7.527344 19.527344 C 7.527344 19.566406 7.527344 19.648438 7.527344 19.691406 C 6.511719 20.257812 6.308594 20.910156 6.308594 21.355469 C 6.308594 22.863281 8.746094 24 12 24 C 15.253906 24 17.691406 22.863281 17.691406 21.355469 C 17.691406 20.910156 17.488281 20.257812 16.472656 19.691406 Z M 12 23.1875 C 9.195312 23.1875 7.121094 22.210938 7.121094 21.355469 C 7.121094 21.082031 7.324219 20.808594 7.699219 20.554688 C 7.917969 20.941406 8.339844 21.269531 8.949219 21.519531 C 9.195312 21.640625 9.4375 21.519531 9.558594 21.316406 C 9.640625 21.113281 9.601562 20.867188 9.4375 20.746094 L 8.339844 19.769531 C 8.339844 19.691406 8.339844 19.609375 8.339844 19.527344 L 8.339844 13.671875 L 8.21875 13.550781 C 7.894531 13.226562 7.8125 12.695312 8.054688 12.289062 C 8.070312 12.261719 8.082031 12.234375 8.09375 12.207031 L 8.339844 12.207031 C 8.585938 12.207031 8.746094 12.046875 8.746094 11.800781 C 8.746094 11.558594 8.585938 11.394531 8.339844 11.394531 L 8.109375 11.394531 C 8.09375 11.355469 8.074219 11.3125 8.054688 11.273438 C 7.894531 10.988281 7.894531 10.582031 8.054688 10.257812 C 8.070312 10.230469 8.082031 10.203125 8.09375 10.175781 L 8.746094 10.175781 C 8.992188 10.175781 9.152344 10.011719 9.152344 9.769531 C 9.152344 9.523438 8.992188 9.363281 8.746094 9.363281 L 8.109375 9.363281 C 8.09375 9.320312 8.074219 9.28125 8.054688 9.238281 C 7.894531 8.957031 7.894531 8.546875 8.054688 8.222656 C 8.070312 8.195312 8.082031 8.167969 8.09375 8.140625 L 8.339844 8.140625 C 8.585938 8.140625 8.746094 7.980469 8.746094 7.734375 C 8.746094 7.492188 8.585938 7.328125 8.339844 7.328125 L 8.109375 7.328125 C 8.09375 7.289062 8.074219 7.246094 8.054688 7.207031 C 7.8125 6.800781 7.894531 6.273438 8.21875 5.945312 L 8.339844 5.824219 L 8.339844 5.660156 C 8.382812 3.953125 9.601562 2.449219 11.269531 2.125 L 11.59375 2.042969 L 11.59375 1.230469 C 11.59375 1.109375 11.632812 0.984375 11.757812 0.90625 C 11.796875 0.863281 11.878906 0.824219 12 0.824219 C 12 0.824219 12.039062 0.824219 12.082031 0.824219 C 12.285156 0.824219 12.40625 1.066406 12.40625 1.269531 L 12.40625 2.042969 L 12.730469 2.125 C 14.398438 2.449219 15.617188 3.953125 15.660156 5.621094 L 15.660156 5.785156 L 15.78125 5.863281 C 16.105469 6.191406 16.1875 6.679688 15.984375 7.085938 C 15.949219 7.164062 15.921875 7.246094 15.902344 7.328125 L 15.660156 7.328125 C 15.414062 7.328125 15.253906 7.492188 15.253906 7.734375 C 15.253906 7.980469 15.414062 8.140625 15.660156 8.140625 L 15.953125 8.140625 C 15.960938 8.167969 15.972656 8.195312 15.984375 8.222656 C 16.148438 8.507812 16.148438 8.875 15.984375 9.160156 C 15.953125 9.222656 15.925781 9.292969 15.90625 9.363281 L 15.253906 9.363281 C 15.007812 9.363281 14.847656 9.523438 14.847656 9.769531 C 14.847656 10.011719 15.007812 10.175781 15.253906 10.175781 L 15.953125 10.175781 C 15.960938 10.203125 15.972656 10.230469 15.984375 10.257812 C 16.148438 10.542969 16.148438 10.90625 15.984375 11.191406 C 15.957031 11.257812 15.929688 11.328125 15.914062 11.394531 L 15.660156 11.394531 C 15.414062 11.394531 15.253906 11.558594 15.253906 11.800781 C 15.253906 12.046875 15.414062 12.207031 15.660156 12.207031 L 15.9375 12.207031 C 15.953125 12.25 15.96875 12.289062 15.984375 12.332031 C 16.1875 12.738281 16.105469 13.226562 15.78125 13.550781 L 15.660156 13.671875 L 15.660156 19.527344 C 15.660156 19.648438 15.660156 19.769531 15.660156 19.894531 L 15.617188 20.179688 L 15.636719 20.1875 C 15.578125 20.304688 15.492188 20.410156 15.375 20.503906 C 14.5625 21.195312 12.488281 21.277344 11.308594 21.195312 C 11.066406 21.152344 10.863281 21.355469 10.863281 21.558594 C 10.820312 21.804688 10.984375 22.007812 11.226562 22.007812 C 11.308594 22.007812 11.632812 22.046875 12.082031 22.046875 C 13.179688 22.046875 14.925781 21.925781 15.902344 21.152344 C 16.09375 20.984375 16.242188 20.792969 16.34375 20.585938 C 16.691406 20.832031 16.878906 21.09375 16.878906 21.355469 C 16.878906 22.210938 14.804688 23.1875 12 23.1875 Z M 12 23.1875"/>
    <path d="M 11.59375 4.074219 C 11.835938 4.074219 12 3.914062 12 3.667969 C 12 3.425781 11.835938 3.261719 11.59375 3.261719 C 10.453125 3.261719 9.558594 4.359375 9.558594 5.703125 C 9.558594 5.945312 9.722656 6.109375 9.96875 6.109375 C 10.210938 6.109375 10.375 5.945312 10.375 5.703125 C 10.375 4.808594 10.902344 4.074219 11.59375 4.074219 Z M 11.59375 4.074219"/>
</svg>

<svg xmlns="http://www.w3.org/2000/svg" width="32" height="32" viewBox="0 0 24 24">
    <path d="M16.473 19.691v-5.694c.488-.528.57-1.34.242-1.993a.381.381 0 0 1 0-.406c.246-.489.246-1.098 0-1.625a.381.381 0 0 1 0-.407c.246-.488.246-1.097 0-1.629a.381.381 0 0 1 0-.406c.328-.691.246-1.46-.242-2.031a4.522 4.522 0 0 0-3.254-4.066v-.121c0-.653-.446-1.223-1.055-1.301-.367-.043-.691.039-.976.281-.247.246-.407.57-.407.937v.16C8.95 1.923 7.61 3.548 7.527 5.458a2.063 2.063 0 0 0-.164 2.156c.043.043.043.121 0 .203a1.847 1.847 0 0 0 0 1.832c.043.04.043.122 0 .204a1.84 1.84 0 0 0 0 1.828c.043.039.043.12 0 .203-.406.691-.324 1.547.164 2.113V19.691c-1.015.567-1.218 1.22-1.218 1.664C6.309 22.863 8.746 24 12 24s5.691-1.137 5.691-2.645c0-.445-.203-1.097-1.218-1.664zM12 23.188c-2.805 0-4.879-.977-4.879-1.833 0-.273.203-.546.578-.8.219.386.64.715 1.25.965.246.12.489 0 .61-.204.082-.203.043-.449-.121-.57L8.34 19.77V13.672l-.121-.121a1.05 1.05 0 0 1-.164-1.262.78.78 0 0 0 .039-.082h.246c.246 0 .406-.16.406-.406 0-.242-.16-.406-.406-.406h-.23a1.654 1.654 0 0 0-.055-.122c-.16-.285-.16-.691 0-1.015a.78.78 0 0 0 .039-.082h.652c.246 0 .406-.164.406-.406 0-.247-.16-.407-.406-.407H8.11c-.015-.043-.035-.082-.054-.125-.16-.281-.16-.691 0-1.015a.781.781 0 0 0 .039-.082h.246c.246 0 .406-.16.406-.407 0-.242-.16-.406-.406-.406h-.23a1.654 1.654 0 0 0-.055-.121 1.051 1.051 0 0 1 .164-1.262l.12-.12V5.66c.044-1.707 1.263-3.21 2.93-3.535l.325-.082V1.23c0-.12.039-.246.164-.324.039-.043.12-.082.242-.082h.082c.203 0 .324.242.324.446v.773l.324.082c1.668.324 2.887 1.828 2.93 3.496v.164l.121.078c.324.328.406.817.203 1.223a1.36 1.36 0 0 0-.082.242h-.242c-.246 0-.406.164-.406.406 0 .246.16.407.406.407h.293c.008.027.02.054.031.082a.954.954 0 0 1 0 .937 1.151 1.151 0 0 0-.078.203h-.652c-.246 0-.406.16-.406.407 0 .242.16.406.406.406h.7c.007.027.019.054.03.082a.947.947 0 0 1 0 .933 1.393 1.393 0 0 0-.07.204h-.254c-.246 0-.406.164-.406.406 0 .246.16.406.406.406h.277c.016.043.032.082.047.125.204.406.121.895-.203 1.219l-.12.12v6.224l-.044.285.02.008a.945.945 0 0 1-.262.316c-.813.691-2.887.773-4.066.691a.384.384 0 0 0-.446.364c-.043.246.121.449.364.449.082 0 .406.039.855.039 1.098 0 2.844-.121 3.82-.895.192-.168.34-.359.442-.566.347.246.535.508.535.77 0 .855-2.074 1.831-4.879 1.831zm0 0"/>
    <path d="M11.594 4.074c.242 0 .406-.16.406-.406a.385.385 0 0 0-.406-.406c-1.14 0-2.035 1.097-2.035 2.441 0 .242.164.406.41.406a.385.385 0 0 0 .406-.406c0-.894.527-1.629 1.219-1.629zm0 0"/>
</svg>
